X: 545
T:Happy to meet and sorry to part
R:jig
M:6/8
L:1/8
Z:Pat Higgins
N:Posted to the woodenflute mailing list, July 2002
K:G
e|dBB BAB|GEF G2A|B2e dBA|Bde gfe|d2B BAB|GEF G2A|
Bee dBA|BGF GBd::g2g fed|Bee efg|g2g fed|
Bdd d2e|g3 fed|Bdd def|g3 eag|fef g3:|
<end>
<start>
